X: 41264
T: Tucandeira Dance
R: reel
M: 4/4
K: Bminor
|BBB fedfd|BBB f2eaf|BBB fedef|d2BF AAAF|
BBB fedfd|BBB f2eaf|BBB fedef|d2ee fefa|
bbb fafef-|fef~e aaaf|bbbf afef-|fdef d2fa|
bbb fafef-|fef~e aaaf|bafe fedB|eeef edBA:|"last time" f6 .e.a|bafe edBA|B8|

